src/actions/22/player-time.svg

<svg xmlns="http://www.w3.org/2000/svg" viewBox="0 0 22 22">
  <defs id="defs3051">
    <style type="text/css" id="current-color-scheme">
      .ColorScheme-Text {
        color:#363636;
      }
      .ColorScheme-Highlight {
        color:#3daee9;
      }
      </style>
  </defs>
 <path 
     style="fill:currentColor;fill-opacity:1;stroke:none" 
     d="M 6.8769531 3 C 5.2125198 3.8561715 3.8561715 5.2125198 3 6.8769531 L 3 7 L 3.921875 7.3066406 C 4.6764786 5.8567461 5.8567461 4.6764786 7.3066406 3.921875 L 7 3 L 6.8769531 3 z M 15.005859 3 L 14.699219 3.921875 C 16.149109 4.676485 17.329374 5.8567506 18.083984 7.3066406 L 19.005859 7 L 19.005859 6.8769531 C 18.149689 5.2125231 16.793336 3.85617 15.128906 3 L 15.005859 3 z M 11 5 C 7.1220048 5 4 8.1220048 4 12 C 4 15.877995 7.1220048 19 11 19 C 14.877995 19 18 15.877995 18 12 C 18 8.1220048 14.877995 5 11 5 z M 11 6 C 14.323996 6 17 8.676004 17 12 C 17 15.323996 14.323996 18 11 18 C 7.676004 18 5 15.323996 5 12 C 5 8.676004 7.676004 6 11 6 z M 9 9 L 9 15 L 14 12 L 9 9 z "
     class="ColorScheme-Text"
     />
</svg>

<svg xmlns="http://www.w3.org/2000/svg" viewBox="0 0 22 22">
    <defs id="defs3051">
        <style id="current-color-scheme" type="text/css">
            .ColorScheme-Highlight{color:#a0b6cb}
        </style>
    </defs>
    <path d="M6.877 3A8.98 8.98 0 0 0 3 6.877V7l.922.307a7.952 7.952 0 0 1 3.385-3.385L7 3h-.123zm8.129 0-.307.922a7.952 7.952 0 0 1 3.385 3.385L19.006 7v-.123A8.98 8.98 0 0 0 15.129 3h-.123zM11 5c-3.878 0-7 3.122-7 7s3.122 7 7 7 7-3.122 7-7-3.122-7-7-7zm0 1c3.324 0 6 2.676 6 6s-2.676 6-6 6-6-2.676-6-6 2.676-6 6-6zM9 9v6l5-3-5-3z" style="fill:currentColor;fill-opacity:1;stroke:none;color:#050505;opacity:.7"/>
</svg>
